X:133
T:Rathick Fair. Ru2.133
%%VWML:RutherfordVol2-2249-p67-0
F:http://www.vwml.org/record/RutherfordVol2/2249/p67
Z:vmp.Steve Mansfield 2015 www.village-music-project.org.uk
M:C|
L:1/8
W:The first Cou. foot it & cast off two Cou. .|
W:Cross up to the Top :| First Man foot it to
W:The 2d Wo. & turn her the first Wo. Foot it
W:To the 2d Man & turn him at the same
W:Time .|. Lead down one Cou. foot it & turn
W:Your Partner :|
Q:1/2=60
K:Dmix
|:g | adag ecge | adag adag | adag ecge | (e/g/a) Tge d2d :|
|:e | cA-Ac GAcG | cA-AB cded | cA-Ac GAcG | A/B/c Ec D2D :|
T:Epie McNabb. Ru2.134
B:RUTHERFORD Complete Collection of 200 Country Dances Vol.2; 1759.
Z:vmp.Steve Mansfield 2015 www.village-music-project.org.uk
M:6/8
L:1/8
W:All the Company foot it & change sides .|
W:Foot it & change sides back again :| First
W:Cou. cast off & turn .|. Hands round all Six :|
Q:3/8=90
K:C
|:A/c/ | dfd dcA | G2G G2A | c2f cAG | AFF F2e |
fef def | gfg cfg | agf dcA | d2G G2 :|
|: f | gag gdB | gdB G2e | fgf fcA | fcA F2e |
fef def | gfg cfg | agf dcA | d2G G2 :|
